X:1
T:I’ll Be a Voice
T:Charles Hutchinson Gabriel
T:I’ll Be a Voice
T:Public Domain
T:Public Domain
C:Charles Hutchinson Gabriel
Z:Public Domain
%%score ( 1 2 ) ( 3 4 )
L:1/8
M:6/8
K:Ab
V:1 treble 
V:2 treble 
V:3 bass 
V:4 bass 
V:1
 [CE][CA][DB] [Ec][Fd][Ec] | [DB]3 [DF]3 | [DG][DA][DB] [DF][DG]>[DF] | [CE]3- [CE]2 z | %4
w: 1.~I’ll be a voice for the|Mas- ter,|Speak- ing for Je- sus to-|day; *|
w: 2.~I’ll be a voice to the|wan- d’rer,|Though far a- way he may|roam; *|
w: 3.~I’ll be a voice for the|Mas- ter,|Un- to the sad and op-|pressed; *|
 [CE][CA][DB] [Ec][Fd][Ec] | [DB]3 [DF]3 | BcB AG[_DF] | (EB,C [DE]2) z || %8
w: Guid- ing the souls He is|seek- ing,|In- to the beau- ti- ful||
w: Tell- ing love’s wel- come is|wait- ing,|Guid- ing the pro- di- gal|be * * *|
w: Guid- ing the feet of the|wea- ry|Un- to His ha- ven of||
"^Refrain" [CE][CA]>[DB] [Ec]3 | [Ge][Gd]>[DF] [DG]3 | E[EG][GB] df z/ e/ | AAA [Ae]2 z | %12
w: ||||
w: voice! I’ll be a|voice! Teach- ing the|truth and the way; I’ll be|* be a voice!|
w: ||||
 [CE][CA]>[DB] [Ec]3 | [_Ge][Gf][Ge] [Fd]3 | [Ec][CE][CA] [DB]<[Ec][DB] | [CA]3- [CA]2 z |] %16
w: ||||
w: ing for Je- sus|to- day. * *|||
w: ||||
V:2
 x6 | x6 | x6 | x6 | x6 | x6 | =D3 D2 x | E3- x3 || x6 | x6 | E x G2 G x | e3- x3 | x6 | x6 | x6 | %15
w: ||||||way. *|||||||||
w: ||||||home. I’ll|a|||a voice! I’ll|Speak-||||
w: ||||||rest. *|||||||||
 x6 |] %16
w: |
w: |
w: |
V:3
 [A,,A,][A,,A,][A,,A,] [A,,A,][A,,A,][A,,A,] | [D,F,]3 [D,B,]3 | %2
 [E,B,][E,F,][E,G,] [E,G,][E,B,]>[E,G,] | [A,,A,]3- [A,,A,]2 z | %4
 [A,,A,][A,,A,][A,,A,] [A,,A,][A,,A,][A,,A,] | [D,F,]3 [D,B,]3 | B,,B,,B,, [B,,F,][B,,B,][B,,A,] | %7
 (G,G,A, [E,B,]2) z || [A,,A,][A,,A,]>[A,,A,] A,3 | [E,B,][E,B,]>[E,B,] [E,B,]3 | %10
 [E,G,][E,B,][E,E] [E,B,]2 [E,D] | [A,C][E,C][C,C] [A,,C]2 z | [A,,A,][A,,A,]>[A,,A,] A,3 | %13
 [C,A,][C,A,][C,A,] [D,A,]3 | [E,A,][E,A,][E,A,] [E,G,]<[E,G,][E,G,] | [A,,A,]3- [A,,A,]2 z |] %16
V:4
 x6 | x6 | x6 | x6 | x6 | x6 | F,3 x3 | E,3- x3 || x3 A,3 | x6 | x6 | x6 | x3 A,3 | x6 | x6 | x6 |] %16

